material/.icons/material/pen-lock.svg

<svg xmlns="http://www.w3.org/2000/svg" viewBox="0 0 24 24"><path d="M21.7 7c-.3.4-.7.7-.7 1 0 .3.3.6.6 1 .5.5 1 .9.9 1.4 0 .5-.5 1-1 1.5L17.4 16 16 14.7l4.2-4.2-1-1-1.4 1.4L14 7.1l4-3.8c.4-.4 1-.4 1.4 0l2.3 2.3c.4.4.4 1.1 0 1.4M4 17.2l9.6-9.6 3.7 3.8L7.8 21H4v-3.8M8 5v-.5C8 3.1 6.9 2 5.5 2S3 3.1 3 4.5V5c-.6 0-1 .4-1 1v4c0 .6.4 1 1 1h5c.6 0 1-.4 1-1V6c0-.6-.4-1-1-1M7 5H4v-.5C4 3.7 4.7 3 5.5 3S7 3.7 7 4.5V5z"/></svg>

<?xml version="1.0" encoding="UTF-8"?><!DOCTYPE svg PUBLIC "-//W3C//DTD SVG 1.1//EN" "http://www.w3.org/Graphics/SVG/1.1/DTD/svg11.dtd"><svg xmlns="http://www.w3.org/2000/svg" xmlns:xlink="http://www.w3.org/1999/xlink" version="1.1" id="mdi-pen-lock" width="24" height="24" viewBox="0 0 24 24"><path d="M21.7,7C21.4,7.4 21,7.7 21,8C21,8.3 21.3,8.6 21.6,9C22.1,9.5 22.6,9.9 22.5,10.4C22.5,10.9 22,11.4 21.5,11.9L17.4,16L16,14.7L20.2,10.5L19.2,9.5L17.8,10.9L14,7.1L18,3.3C18.4,2.9 19,2.9 19.4,3.3L21.7,5.6C22.1,6 22.1,6.7 21.7,7M4,17.2L13.6,7.6L17.3,11.4L7.8,21H4V17.2M8,5V4.5C8,3.1 6.9,2 5.5,2C4.1,2 3,3.1 3,4.5V5C2.4,5 2,5.4 2,6V10C2,10.6 2.4,11 3,11H8C8.6,11 9,10.6 9,10V6C9,5.4 8.6,5 8,5M7,5H4V4.5C4,3.7 4.7,3 5.5,3C6.3,3 7,3.7 7,4.5V5Z" /></svg>
